X: 1079
T: Tangier March.
%R: march
B: Henry Playford "Apollo's Banquet", London 1687 (5th Edition)
F: https://archive.org/details/apollosbanquetco01rugg
Z: 2017 John Chambers <jc:trillian.mit.edu>
M: C|
L: 1/8
K: Gm
% - - - - - - - - - -
|:\
G2B2 B3d | (cB)(cd) c2(BA) |\
(GA)B2 B2c2 | d4 f4 ::\
G2B2 g3f | d2(cB) c2(BA) |
G2B2 g2f2 | d4 f4 |\
G2B2 g3f | (gf)(ed) c2f2 |\
gab2 c2c2 | d4 f4 |]
% - - - - - - - - - -

%%sep 1 1 500
%%sep 1 1 500

